X: 1
T: Tillsammans - Brudmarsch   [G]
T: Together - bridal march
C: Anders Eriksson
C: arr. Gunnar \"Osterg\aards, Bengt Jonsson
R: march
S: http://spelmanslaget.nu/wp-content/uploads/2011/04/Tillsammans1.pdf
Z: 2020 John Chambers <jc:trillian.mit.edu>
M: 2/4
L: 1/16
K: G
% - - - - - - - - - -
V: 1 staves=2
(DG)A |\
"G"B2B2 "D"A2GF | "G"G4- G(GB)d | "Em"g2g2 "Bm"f2d2 | "C"e6 g2 |\
"G"d3B "D"c3A | "Em"BAG2 "D"A4 | "G"G2B2 "D"A2GF | "G"G4- G :|
|: zGF |\
"C"E2GE "D"F2AF | "G"G4- G2GF | "C"E2G2 "D"A2cA | "G"B3(A GA)Bd |\
"Em"g2g2 "Bm"f3d | "C"e2dc "G"B3(G | "G"B2)AG "D"A2F2 | "G"G4- G :|
% - - - - - - - - - -
V: 2
(B,D)F |\
G2G2 F2DA, | [D4-B,4] D(DG)B | e2e2 d2B2 | c6 e2 |\
B3G A3F | GFE2 F4 | D2G2 F2DA, | [D4-B,4] D :|
|: zDB, |\
C2ED D2FD | [D4-B,4] D2DB, | C2E2 F2AF | G3(F DF)GB |\
e2e2 d3B | c2BA G3(D | G2)FD D2A,2 | [D4-B,4] D :|
